src/actions/16/edit-table-insert-row-under.svg

<svg xmlns="http://www.w3.org/2000/svg" viewBox="0 0 16 16">
    <path d="M2 2v3h1V3h3v2h1V3h2v2h1V3h3v2h1V2H2zm8 4 2 4 2-4h-4zm-8 4v4h12v-4h-1v3h-3v-3H9v3H7v-3H6v3H3v-3H2z" style="fill:currentColor;fill-opacity:1;stroke:none;color:#050505;opacity:.7"/>
    <path d="M2 5v1h1.281L2 7.281v1.438L4.719 6h2.563l-3 3H2.001v1h7V8.281L8.282 9H5.719l3-3H9V5H3Z" style="fill:currentColor;fill-opacity:1;stroke:none;color:#a0b6cb"/>
</svg>

<svg xmlns="http://www.w3.org/2000/svg" viewBox="0 0 16 16">
  <defs id="defs3051">
    <style type="text/css" id="current-color-scheme">
      .ColorScheme-Text {
        color:#363636;
      }
      .ColorScheme-Highlight {
        color:#a0b6cb;
      }
      </style>
  </defs>
  <path 
        style="fill:currentColor;fill-opacity:1;stroke:none"
        d="M 2 2 L 2 5 L 3 5 L 3 3 L 6 3 L 6 5 L 7 5 L 7 3 L 9 3 L 9 5 L 10 5 L 10 3 L 13 3 L 13 5 L 14 5 L 14 2 L 9 2 L 2 2 z M 10 6 L 12 10 L 14 6 L 10 6 z M 2 10 L 2 14 L 14 14 L 14 10 L 13 10 L 13 13 L 10 13 L 10 10 L 9 10 L 9 13 L 7 13 L 7 10 L 6 10 L 6 13 L 3 13 L 3 10 L 2 10 z "
        class="ColorScheme-Text"
        />
  <path 
        style="fill:currentColor;fill-opacity:1;stroke:none"
        d="M 2,5 2,6 3.281,6 2,7.281 2,8.719 4.719,6 l 2.563,0 -3,3 -2.281,0 0,1 7,0 0,-1.719 L 8.282,9 5.719,9 8.719,6 9,6 9,5 3,5 Z" 
        class="ColorScheme-Highlight"
        />
</svg>
